X: 1
P:Terribus
C:arr. T. Traub 6-12-95, mods. 2-24-2004
L:1/4
M:4/4
R:Reel
K:Eb
B|"Eb"e B e>f|"Eb"g b "Cm"g e|"Fm"a>g "Ab"f e|"Bb"d f d B|"Eb"e B e>f|"Eb"g b "Cm"g e|"Fm"a>g "Bb"f b|"Eb"g e e/2f/2g/2a/2||
"Eb"b2 "Bb"b>a|"Eb"g b "Cm"g e|"Fm"a>g f e|"Bb"d f d B|"Eb"b2 "Bb"b>a|"Eb"g b "Cm"g e|"Fm"a>g "Bb"f b |"Eb"g e e |]

